X: 1
T: Jaden's Waltz
C: Rodney Miller 2009
R: waltz
S: handwritten page in Concord Slow Scottish Session collection
Z: 2015 John Chambers <jc:trillian.mit.edu>
M: 3/4
L: 1/8
K: A
c2 d3 c [|\
"Amaj7"e4 F2 | "Dmaj7"G4 A2 | "Amaj7"E4 A2 | "E"B4 A2 |\
"Amaj7"e4 F2 | "Dmaj7"F4 E2 | "Amaj7"C4 E2 |
A2 B2 c2 |\
"Dmaj7"d4 fd | "Amaj7/C#"c4 ec | "Bm"B4 Bc | d2 c2 A2 |\
"Dmaj7"c6 | c2 d2 c2 | "E"B4 a2 | a2 g2 e2 |]
"Dmaj7"f6 | f2 e2 c2 | "E"(3(cdc) B4 | B2 c2 d2 |\
"Amaj7"e6 | "E6/G#"c4 (3(BcB) | "F#m"A4 g2 | g2 a3 e |
"Bm"d6 | "A"c2 A2 | "E/G#"G4 EE | "E"E2 A2 G2 |\
"Amaj7"A6- | "Dmaj7"A6- | "Amaj7"A6- |] ["final" "Amaj7"A6 |]
